X: 5
T: Bonaparte Crossing The Rhine
R: march
M: 4/4
L: 1/8
K: Amix
A>G AB|AG GA|c>d ec|d2 ef/g/|a>g ed|ed BA|G>A BA|G2 ed/B/|
A>G AB|AG GA|c>d ec|d2 ef/g/|a>g ed|ed BA/G/|A3 B|1 A2 ed/B/:|2 A2 ef/g/||
a>g ed|ed ef|g>a ge|g2 ef/g/|a>g ed|ed BA|G>A BA|G2 ed/B/|
A>G AB|AG GA|c>d ec|d2 ef/g/|a>g ed|ed BA/G/|A3 B|1 A2 ef/g/:|2 A2 ed/B/||

